X: 30728
T: Orla's Intent
R: reel
M: 4/4
K: Dmajor
|dAFA GAAG|FADF E2 FA|dAFA Bcdf|edBd g2 fe|
dAFA GAAG|FADF E2 FA|dAFA Bcdf|edcA d3 c:|
|:~d2 Ad ~e2 de|~f3 g fdcd|Bg ~g2 edcd|efed cABc|
~d2 Ad ~e2 de|~f3 d gefg|abag efge|fddc d2 Bc:|

